X:1
T:Title
%%score { 1 | ( 2 3 ) }
L:1/8
Q:1/4=94
M:4/4
K:Ab
V:1 treble nm="Grand Piano"
V:2 bass 
V:3 bass 
V:1
 [Ec]B[CA][EG] F2 F2 | E6 z2 | GFGB A2 c2 | B6 z2 | [Ec]B[CA][A,EG] [A,DF]2 [DFA]2 | %5
w: Chas.~Edw.~Prior * * * * *|||||
 .[DFB]2 [EG]F [A,CE]2 [CEA]2 | [EA]AGA B2 c2 | [CA]6 z2 | B2 =A>B G2 E2 | %9
w: ||||
 [Ec]2 [=D_c]>[E=c] [_DB]2 [CA]2 | [Fd]2 [FA]>[=EB] [_Ec]2 [Ec]2 | [EB]6 z2 | %12
w: |||
 [Ec]B[CA][A,EG] [A,DF]2 [DFA]2 | .[DFB]2 [EG]F [A,CE]2 [CEA]2 | AAGA B2 c2 | [CA]6 z2 |] %16
w: ||||
V:2
 A,[E,D][A,,E,][C,A,] [D,G,D]2 [F,A,D]2 | [A,C]6 z2 | B,A,[E,B,D][E,G,D] [E,A,C]2 [E,A,E]2 | %3
 [E,G,E]6 z2 | .A,2 z2 z4 | z A z D A,,2 A,,2 | z E[B,D][A,C] [E,G,D]2 [E,G,E]2 | [A,,A,]6 z2 | %8
 z4 B,2 z2 | [A,,A,]2 [A,,A,]>[A,,A,] [E,G,]2 [F,A,]2 | [D,A,]2 [D,D]>[D,A,] [A,,A,]2 [C,A,]2 | %11
 [E,G,]6 z2 | .A,2 z2 z4 | z A z D A,,2 A,,2 | [E,CE][E,CE][E,B,D][E,A,C] [E,G,D]2 [E,G,E]2 | %15
 [A,,A,]6 z2 |] %16
V:3
 A,,2 z2 z4 | x8 | [E,D]2 z2 z4 | x8 | A,,-[A,,E,D][A,,E,]C, D,2 D,2 | D,2 [D,A,]2 z4 | %6
 [E,C]2 E,2 z4 | x8 | [E,G,D]2 [E,G,C]>[E,G,D] [E,D]2- [E,G,D]2 | x8 | x8 | x8 | %12
 A,,-[A,,E,D][A,,E,]C, D,2 D,2 | D,2 [D,A,]2 z4 | x8 | x8 |] %16

